X: 2248
T: IRISH REEL
%R: reel
B: James Kerr "Merry Melodies" v.2 p.27 #248
Z: 2016 John Chambers <jc:trillian.mit.edu>
M: C
L: 1/8
K: Edor
(udc) |:\
(vBE) (3EEE BEGA | BcdB ADFA |\
(BE) (3EEE GEGA | Be^df [1 ge=dc :|[2 gee2 |]
|:\
Beef gfeg | fede fa[1fd |\
Beef gfe=c | BAGF (GE)E2 :|[2 gf |\
e^def gfe=c | BAGF E2 |]
